dist/assets/img/advantages/shield 1b.svg

<svg width="40" height="40" viewBox="0 0 40 40" fill="none" xmlns="http://www.w3.org/2000/svg">
<g clip-path="url(#clip0)">
<path d="M36.4854 4.68574C29.5833 4.68574 20.6085 0.300018 20.5186 0.25564L20.0001 0L19.4815 0.25564C19.3917 0.299939 10.4168 4.68574 3.51472 4.68574H2.34277V18.9031C2.34277 29.1879 9.67695 38.0431 19.7818 39.9586L20.0001 40L20.2184 39.9586C30.3232 38.043 37.6573 29.1879 37.6573 18.9031V4.68574H36.4854ZM35.3135 18.9031C35.3135 27.9887 28.8867 35.8216 20.0001 37.6131C11.1134 35.8216 4.68666 27.9887 4.68666 18.9031V6.99471C10.963 6.63039 18.0342 3.52232 20.0001 2.60507C21.9659 3.52232 29.0372 6.63039 35.3135 6.99471V18.9031Z" fill="#051223"/>
<path d="M19.5457 6.64626C18.3896 7.13262 17.2125 7.5885 16.047 8.00118C13.6106 8.86389 11.289 9.51682 9.14652 9.94184L8.20264 10.1291V18.9032C8.20264 22.3641 9.38028 25.7732 11.5186 28.5022C13.5773 31.1296 16.4803 33.0573 19.6929 33.93L20.0002 34.0134L20.3075 33.93C23.5201 33.0573 26.4231 31.1296 28.4818 28.5022C30.6202 25.7732 31.7978 22.3641 31.7978 18.9032V10.1291L30.8539 9.94184C28.7114 9.51682 26.3897 8.86389 23.9534 8.00118C22.7879 7.58843 21.6108 7.13262 20.4547 6.64626L20.0003 6.45508L19.5457 6.64626ZM16.8294 10.2107C17.494 9.97536 18.162 9.72511 18.8282 9.46494V18.3096H10.5464V12.0422C12.5295 11.6011 14.6382 10.9865 16.8294 10.2107ZM13.3636 27.0567C11.9096 25.2009 10.979 22.9753 10.6653 20.6535H18.8283V31.1686C16.6942 30.3026 14.7905 28.8776 13.3636 27.0567ZM26.6368 27.0567C25.2099 28.8777 23.3062 30.3027 21.1721 31.1686V20.6535H29.3351C29.0214 22.9753 28.0908 25.2009 26.6368 27.0567ZM29.4539 12.0422V18.3095H21.1721V9.46486C21.8383 9.72503 22.5063 9.97528 23.171 10.2106C25.3621 10.9865 27.4709 11.6011 29.4539 12.0422Z" fill="#051223"/>
</g>
<defs>
<clipPath id="clip0">
<rect width="40" height="40" fill="white"/>
</clipPath>
</defs>
</svg>

<svg width="40" height="40" fill="none" xmlns="http://www.w3.org/2000/svg"><g clip-path="url(#clip0)" fill="#051223"><path d="M36.485 4.686C29.583 4.686 20.608.3 20.52.256L20 0l-.518.256c-.09.044-9.065 4.43-15.967 4.43H2.343v14.217c0 10.285 7.334 19.14 17.439 21.056L20 40l.218-.041c10.105-1.916 17.44-10.771 17.44-21.056V4.686h-1.173zm-1.172 14.217c0 9.086-6.426 16.919-15.313 18.71-8.887-1.791-15.313-9.624-15.313-18.71V6.995C10.963 6.63 18.034 3.522 20 2.605c1.966.917 9.037 4.025 15.313 4.39v11.908z"/><path d="M19.546 6.646a65.09 65.09 0 01-3.499 1.355c-2.436.863-4.758 1.516-6.9 1.94l-.944.188v8.774c0 3.461 1.177 6.87 3.316 9.6a15.676 15.676 0 008.174 5.427l.307.083.308-.083a15.676 15.676 0 008.174-5.428 15.634 15.634 0 003.316-9.599V10.13l-.944-.187c-2.143-.425-4.464-1.078-6.9-1.94a65.15 65.15 0 01-3.5-1.356L20 6.456l-.454.19zm-2.717 3.565a66.824 66.824 0 002-.746v8.845h-8.283v-6.268c1.984-.44 4.092-1.056 6.283-1.831zm-3.465 16.846a13.297 13.297 0 01-2.699-6.403h8.163v10.515a13.343 13.343 0 01-5.464-4.112zm13.273 0a13.342 13.342 0 01-5.465 4.112V20.654h8.163a13.297 13.297 0 01-2.698 6.403zm2.817-15.015v6.268h-8.282V9.464c.666.26 1.334.51 1.999.746 2.191.775 4.3 1.39 6.283 1.831z"/></g><defs><clipPath id="clip0"><path fill="#fff" d="M0 0h40v40H0z"/></clipPath></defs></svg>
